X: 20041
T: The DEIL'S ELBOW
C: Copyright.--John Turnbull
R: Reel.
Q: "Furioso, piu e piu."
%R: reel
B: W. Hamilton "Universal Tune-Book" Vol. 2 Glasgow 1846 p.4 #1
S: http://s3-eu-west-1.amazonaws.com/itma.dl.printmaterial/book_pdfs/hamiltonvol2web.pdf
Z: 2016 John Chambers <jc:trillian.mit.edu>
M: C
L: 1/8
K: Bb
%%stretchstaff 0
% - - - - - - - - - - - - - - - - - - - - - - - - -
[|\
f2dB AcFB | AcFB AcFB | GBAc Bdce | dgf=e f2ga |\
b2ge dfBe | dfBe dfBe | dgfe dbfd | gecA B2(FE) |]
DBFB GBFd | cBAG AF fe | dfcf BfAf | Ggf=e fcfg |\
_afdB gecd | ecAF fedc | dfBe dbfd | gecA B2Bd |]
% - - - - - - - - - - - - - - - - - - - - - - - - -

%%sep 1 1 500
%%sep 1 1 500

